X:26
T:Pretty Little Shoes
M:C|
G:Key: A modal
O:from Ward Jarvis, WV
O:via Jeff Goehring
S:Judy Hyman et al., The Floyd Radio Show Podcast, October 5, 2019
N:Good in cross-A tuning
Z:abc-transcription Josh Larios <hades@elsewhere.org>, 2020.01.13
Z:abc-copyright This transcription is licensed under a Creative Commons Attribution-ShareAlike 4.0 International License.
K:AMix
[P:A]y0|: ef | "A" gfed cd3 | e2-ee e2 ef | gfed cAcd | e2-ee e2 e2- |
efgf e2dA | (3BcB AG E2 E^G | A2AA "E"BA^GE  | "A"A3AA2 :|
[P:B]y0|: E^G |"A"A2B2A2^G2 | ABA^G E2E^G | A2AA cAcd | "E"e2-ee e2 e2- |
"A"efgf e2dA | (3BcB AG E2 E^G | A2AA "E"BA^GE | "A"A2-AAA2 :|

